src/assets/duotone/FolderFavorite.svg

<svg width="24" height="24" viewBox="0 0 24 24"  xmlns="http://www.w3.org/2000/svg">
<path opacity="0.4" d="M21.74 9.44H2V6.42C2 3.98 3.98 2 6.42 2H8.75C10.38 2 10.89 2.53 11.54 3.4L12.94 5.26C13.25 5.67 13.29 5.73 13.87 5.73H16.66C19.03 5.72 21.05 7.28 21.74 9.44Z" />
<path d="M21.99 10.8399C21.97 10.3499 21.89 9.88994 21.74 9.43994H2V16.6499C2 19.5999 4.4 21.9999 7.35 21.9999H16.65C19.6 21.9999 22 19.5999 22 16.6499V11.0699C22 10.9999 22 10.9099 21.99 10.8399ZM14.54 15.9699L12.39 17.8499C12.28 17.9499 12.14 17.9999 12 17.9999C11.86 17.9999 11.72 17.9499 11.61 17.8499L9.46 15.9699C8.78 15.3699 8.69 14.3499 9.25 13.6399C9.83 12.9199 10.85 12.7899 11.59 13.3399L11.99 13.6399L12.39 13.3399C13.13 12.7899 14.15 12.9199 14.73 13.6399C15.31 14.3499 15.22 15.3699 14.54 15.9699Z" />
</svg>

<?xml version="1.0" encoding="UTF-8"?>
<svg width="24" height="24" viewBox="0 0 24 24" xmlns="http://www.w3.org/2000/svg">
 <path d="m21.74 9.44h-19.74v-3.02c0-2.44 1.98-4.42 4.42-4.42h2.33c1.63 0 2.14 0.53 2.79 1.4l1.4 1.86c0.31 0.41 0.35 0.47 0.93 0.47h2.79c2.37-0.01 4.39 1.55 5.08 3.71z" opacity=".4"/>
 <path d="m21.99 10.84c-0.02-0.49-0.1-0.94996-0.25-1.4h-19.74v7.21c0 2.95 2.4 5.35 5.35 5.35h9.3c2.95 0 5.35-2.4 5.35-5.35v-5.58c0-0.07 0-0.16-0.01-0.23zm-7.45 5.13-2.15 1.88c-0.11 0.1-0.25 0.15-0.39 0.15s-0.28-0.05-0.39-0.15l-2.15-1.88c-0.68-0.6-0.77-1.62-0.21-2.33 0.58-0.72 1.6-0.85 2.34-0.3l0.4 0.3 0.4-0.3c0.74-0.55 1.76-0.42 2.34 0.3 0.58 0.71 0.49 1.73-0.19 2.33z"/>
</svg>
